public/assets/hexagon .svg

<svg xmlns="http://www.w3.org/2000/svg" version="1.1" xmlns:xlink="http://www.w3.org/1999/xlink" xmlns:svgjs="http://svgjs.dev/svgjs" viewBox="0 0 800 800" opacity="1"><defs><linearGradient x1="50%" y1="0%" x2="50%" y2="100%" id="nnneon-grad"><stop stop-color="#c62368" stop-opacity="1" offset="0%"></stop><stop stop-color="#64baff" stop-opacity="1" offset="100%"></stop></linearGradient><filter id="nnneon-filter" x="-100%" y="-100%" width="400%" height="400%" filterUnits="objectBoundingBox" primitiveUnits="userSpaceOnUse" color-interpolation-filters="sRGB">
	<feGaussianBlur stdDeviation="6 0" x="0%" y="0%" width="100%" height="100%" in="SourceGraphic" edgeMode="none" result="blur"></feGaussianBlur></filter><filter id="nnneon-filter2" x="-100%" y="-100%" width="400%" height="400%" filterUnits="objectBoundingBox" primitiveUnits="userSpaceOnUse" color-interpolation-filters="sRGB">
	<feGaussianBlur stdDeviation="0 9" x="0%" y="0%" width="100%" height="100%" in="SourceGraphic" edgeMode="none" result="blur"></feGaussianBlur></filter></defs><g stroke-width="12.5" stroke="url(#nnneon-grad)" fill="none"><path d="M386.836432217115 210.14579254875042C394.9820479611642 205.4437661367039 405.0179520388358 205.4437661367039 413.163567782885 210.14710890552874L557.8364431439047 293.67389555826907C565.9820588879538 298.37592197031563 571.0000109267896 307.0678257773546 571.0000109267896 316.473194958226V483.5267682637066C571.0000109267896 492.9321374445781 565.9820588879538 501.624041251617 557.8364431439047 506.32738402044185L413.163567782885 589.8541706731821C405.0179520388358 594.5561970852286 394.9820479611642 594.5561970852286 386.836432217115 589.8528543164039L242.1635568560954 506.3260676636636C234.01794111204612 501.624041251617 228.99998907321032 492.9321374445781 228.99998907321032 483.5267682637066V316.473194958226C228.99998907321032 307.0678257773546 234.01794111204612 298.37592197031563 242.1635568560954 293.6725792014908L386.836432217115 210.14579254875042Z " filter="url(#nnneon-filter)"></path><path d="M386.836432217115 210.14579254875042C394.9820479611642 205.4437661367039 405.0179520388358 205.4437661367039 413.163567782885 210.14710890552874L557.8364431439047 293.67389555826907C565.9820588879538 298.37592197031563 571.0000109267896 307.0678257773546 571.0000109267896 316.473194958226V483.5267682637066C571.0000109267896 492.9321374445781 565.9820588879538 501.624041251617 557.8364431439047 506.32738402044185L413.163567782885 589.8541706731821C405.0179520388358 594.5561970852286 394.9820479611642 594.5561970852286 386.836432217115 589.8528543164039L242.1635568560954 506.3260676636636C234.01794111204612 501.624041251617 228.99998907321032 492.9321374445781 228.99998907321032 483.5267682637066V316.473194958226C228.99998907321032 307.0678257773546 234.01794111204612 298.37592197031563 242.1635568560954 293.6725792014908L386.836432217115 210.14579254875042Z " filter="url(#nnneon-filter2)" opacity="0.18"></path><path d="M386.836432217115 210.14579254875042C394.9820479611642 205.4437661367039 405.0179520388358 205.4437661367039 413.163567782885 210.14710890552874L557.8364431439047 293.67389555826907C565.9820588879538 298.37592197031563 571.0000109267896 307.0678257773546 571.0000109267896 316.473194958226V483.5267682637066C571.0000109267896 492.9321374445781 565.9820588879538 501.624041251617 557.8364431439047 506.32738402044185L413.163567782885 589.8541706731821C405.0179520388358 594.5561970852286 394.9820479611642 594.5561970852286 386.836432217115 589.8528543164039L242.1635568560954 506.3260676636636C234.01794111204612 501.624041251617 228.99998907321032 492.9321374445781 228.99998907321032 483.5267682637066V316.473194958226C228.99998907321032 307.0678257773546 234.01794111204612 298.37592197031563 242.1635568560954 293.6725792014908L386.836432217115 210.14579254875042Z " filter="url(#nnneon-filter2)" opacity="0.18"></path><path d="M386.836432217115 210.14579254875042C394.9820479611642 205.4437661367039 405.0179520388358 205.4437661367039 413.163567782885 210.14710890552874L557.8364431439047 293.67389555826907C565.9820588879538 298.37592197031563 571.0000109267896 307.0678257773546 571.0000109267896 316.473194958226V483.5267682637066C571.0000109267896 492.9321374445781 565.9820588879538 501.624041251617 557.8364431439047 506.32738402044185L413.163567782885 589.8541706731821C405.0179520388358 594.5561970852286 394.9820479611642 594.5561970852286 386.836432217115 589.8528543164039L242.1635568560954 506.3260676636636C234.01794111204612 501.624041251617 228.99998907321032 492.9321374445781 228.99998907321032 483.5267682637066V316.473194958226C228.99998907321032 307.0678257773546 234.01794111204612 298.37592197031563 242.1635568560954 293.6725792014908L386.836432217115 210.14579254875042Z "></path></g></svg>

<svg xmlns="http://www.w3.org/2000/svg" viewBox="0 0 800 800"><defs><filter id="b" x="-100%" y="-100%" width="400%" height="400%" filterUnits="objectBoundingBox" primitiveUnits="userSpaceOnUse" color-interpolation-filters="sRGB"><feGaussianBlur stdDeviation="6 0" x="0%" y="0%" width="100%" height="100%" in="SourceGraphic" result="blur"/></filter><filter id="c" x="-100%" y="-100%" width="400%" height="400%" filterUnits="objectBoundingBox" primitiveUnits="userSpaceOnUse" color-interpolation-filters="sRGB"><feGaussianBlur stdDeviation="0 9" x="0%" y="0%" width="100%" height="100%" in="SourceGraphic" result="blur"/></filter><linearGradient x1="50%" y1="0%" x2="50%" y2="100%" id="a"><stop stop-color="#c62368" offset="0%"/><stop stop-color="#64baff" offset="100%"/></linearGradient></defs><g stroke-width="12.5" stroke="url(#a)" fill="none"><path d="M386.836 210.146a26.328 26.328 0 0 1 26.328.001l144.672 83.527a26.326 26.326 0 0 1 13.164 22.8v167.053a26.33 26.33 0 0 1-13.164 22.8l-144.672 83.527a26.328 26.328 0 0 1-26.328-.001l-144.672-83.527a26.326 26.326 0 0 1-13.164-22.8V316.474a26.33 26.33 0 0 1 13.164-22.8l144.672-83.527Z" filter="url(#b)"/><path d="M386.836 210.146a26.328 26.328 0 0 1 26.328.001l144.672 83.527a26.326 26.326 0 0 1 13.164 22.8v167.053a26.33 26.33 0 0 1-13.164 22.8l-144.672 83.527a26.328 26.328 0 0 1-26.328-.001l-144.672-83.527a26.326 26.326 0 0 1-13.164-22.8V316.474a26.33 26.33 0 0 1 13.164-22.8l144.672-83.527Z" filter="url(#c)" opacity=".18"/><path d="M386.836 210.146a26.328 26.328 0 0 1 26.328.001l144.672 83.527a26.326 26.326 0 0 1 13.164 22.8v167.053a26.33 26.33 0 0 1-13.164 22.8l-144.672 83.527a26.328 26.328 0 0 1-26.328-.001l-144.672-83.527a26.326 26.326 0 0 1-13.164-22.8V316.474a26.33 26.33 0 0 1 13.164-22.8l144.672-83.527Z" filter="url(#c)" opacity=".18"/><path d="M386.836 210.146a26.328 26.328 0 0 1 26.328.001l144.672 83.527a26.326 26.326 0 0 1 13.164 22.8v167.053a26.33 26.33 0 0 1-13.164 22.8l-144.672 83.527a26.328 26.328 0 0 1-26.328-.001l-144.672-83.527a26.326 26.326 0 0 1-13.164-22.8V316.474a26.33 26.33 0 0 1 13.164-22.8l144.672-83.527Z"/></g></svg>
